!! 00000] TT[WS
!!!OTL: Shang minxiao
!!!ARE: Asia, China, Shanxi Linxian
!! Ethnic Group: Han
!! WI, 300
!!!SCT: J0363
!!!YEM: Copyright 1995, estate of Helmut Schaffrath.
**kern
*ICvox
*Ivox
*M2/4
*k[f#]
*G:
{8g
8f#
8e
8d
=1
8.dd
16ee
8b
8dd
=2
8gg
8ff#
16ee
16dd
8b
=3
8.dd
16b
4a}
=4
{8dd
16a
16b
8.dd
16ee
=5
8gg
8ff#
8ee
8dd
=6
8dd
16a
16b
8a
8e
=7
2d}
=8
{8g
16d
16e
4g
=9
8b
16a
16b
8dd
8b
=10
8a
8f#
8e
8d
=11
2e}
=12
{8.dd
16dd
8b
8dd
=13
8gg
8ff#
8ee
8dd
=14
8dd
8g
8a
8e
=15
8dd
16a
16b
8a
8e
=16
2d}
==
!!!AGN: Xiaodiao. Xinminge, Xuanchuan
!! Neue Text. Politische Liede
!!!ONB: ESAC (Essen Associative Code) Database: CHINA
!!!AMT: simple duple
!!!AIN: vox
!!!EED: Helmut Schaffrath
!!!EEV: 1.0
*-
